assets/fill/article-medium-fill.svg

<svg id="Flat" xmlns="http://www.w3.org/2000/svg" viewBox="0 0 256 256">
  <path d="M56.02344,136.00094a8.00039,8.00039,0,0,1-8,8h-24a8,8,0,1,1,0-16h8v-64h-8a8,8,0,0,1,0-16h16c.04052,0,.08008.00537.1206.00586.15235.00293.30371.01221.45557.02344.11963.0083.23974.01611.35791.02979.126.01464.25.03662.375.05712.13965.02295.27881.04541.416.0752.10157.02246.20166.05176.30225.07812.15234.03956.30518.07911.45361.12745.09229.03027.18262.06689.27393.10009.11963.044.24219.082.35889.13184.02881.01172.05566.02783.08447.04053.10254.04443.20215.09668.30273.1455.12647.062.25391.12159.37647.19.12207.06738.23926.14306.35791.21679.0957.06006.19336.11719.28613.18116.12988.08886.2544.18652.3794.28369.07763.06006.15673.11718.23193.18017.11963.1001.2334.208.34766.31592.05761.05469.12011.10449.17627.16065.01757.01757.0332.03759.05078.05517.09765.1001.18994.20654.2832.312.06006.06787.125.13086.18262.20069.023.02832.043.05957.06591.08838.07374.09228.14307.189.2129.28515.09082.124.18066.249.26416.37842.02148.0332.04638.063.06787.09668l33.21582,53.146,33.21582-53.146c.02148-.03369.04638-.06348.06787-.09668.08349-.1294.17334-.2544.26416-.37842.06982-.09619.13916-.19287.21289-.28515.02295-.02881.04248-.06006.06592-.08838.05761-.06983.123-.13282.18261-.20069.09327-.10595.18555-.21191.28321-.31152.01758-.01807.03271-.03809.05078-.05566.05615-.05665.11914-.10645.17724-.16114.11377-.10742.22706-.21533.3462-.31494.07617-.06348.15625-.12158.23437-.18262.12451-.09619.248-.19336.37695-.28173.09327-.064.19092-.1211.28711-.18116.11866-.07373.23584-.1499.35743-.21728s.248-.12647.373-.188c.10254-.04932.20313-.10254.30713-.14746.02832-.0127.05469-.02832.0835-.04.11523-.04883.23633-.08643.35449-.12988.09326-.03418.18506-.07178.2793-.10254.14746-.04785.29834-.08692.44922-.12647.10205-.02685.20361-.05615.30664-.07861.13525-.02979.273-.05176.41064-.07422.127-.02148.25342-.04346.38135-.05859.11621-.01319.23437-.021.35205-.0293.15381-.01123.30713-.021.46191-.02344.03955-.00049.07813-.00586.11817-.00586h16a8,8,0,0,1,0,16h-8v64h8a8,8,0,0,1,0,16h-24a8,8,0,0,1,0-16V83.89547L86.80762,124.24118a8.00063,8.00063,0,0,1-13.56836,0L48.02344,83.89547v44.10547A8.00039,8.00039,0,0,1,56.02344,136.00094Zm112-24h72a8,8,0,0,0,0-16h-72a8,8,0,0,0,0,16Zm72,16h-72a8,8,0,0,0,0,16h72a8,8,0,0,0,0-16Zm0,32h-168a8,8,0,0,0,0,16h168a8,8,0,0,0,0-16Zm0,32h-168a8,8,0,0,0,0,16h168a8,8,0,0,0,0-16Z"/>
</svg>

<svg xmlns="http://www.w3.org/2000/svg" viewBox="0 0 256 256"><path d="M56,136a8,8,0,0,1-8,8H24a8,8,0,0,1,0-16h8V64H24a8,8,0,0,1,0-16H40a8,8,0,0,1,6.8,3.8L80,104.9l33.2-53.1A8,8,0,0,1,120,48h16a8,8,0,0,1,0,16h-8v64h8a8,8,0,0,1,0,16H112a8,8,0,0,1,0-16V83.9L86.8,124.2a8,8,0,0,1-13.6,0L48,83.9V128A8,8,0,0,1,56,136Zm112-24h72a8,8,0,0,0,0-16H168a8,8,0,0,0,0,16Zm72,16H168a8,8,0,0,0,0,16h72a8,8,0,0,0,0-16Zm0,32H72a8,8,0,0,0,0,16H240a8,8,0,0,0,0-16Zm0,32H72a8,8,0,0,0,0,16H240a8,8,0,0,0,0-16Z"/></svg>
